src/assets/duotone/Computing.svg

<svg width="24" height="24" viewBox="0 0 24 24"  xmlns="http://www.w3.org/2000/svg">
<path opacity="0.4" d="M22 7.81V16.19C22 19.83 19.83 22 16.19 22H7.81C6.32 22 5.08 21.64 4.13 20.95C3.71 20.66 3.34 20.29 3.05 19.87C2.36 18.92 2 17.68 2 16.19V7.81C2 4.17 4.17 2 7.81 2H16.19C17.68 2 18.92 2.36 19.87 3.05C20.29 3.34 20.66 3.71 20.95 4.13C21.64 5.08 22 6.32 22 7.81Z" />
<path d="M20.9498 4.1298L4.1298 20.9498C3.7098 20.6598 3.3398 20.2898 3.0498 19.8698L19.8698 3.0498C20.2898 3.3398 20.6598 3.7098 20.9498 4.1298Z" />
<path d="M18.5 14.75H16.81V13C16.81 12.59 16.47 12.25 16.06 12.25C15.65 12.25 15.31 12.59 15.31 13V14.75H13.5C13.09 14.75 12.75 15.09 12.75 15.5C12.75 15.91 13.09 16.25 13.5 16.25H15.31V18C15.31 18.41 15.65 18.75 16.06 18.75C16.47 18.75 16.81 18.41 16.81 18V16.25H18.5C18.91 16.25 19.25 15.91 19.25 15.5C19.25 15.09 18.91 14.75 18.5 14.75Z" />
<path d="M10.5 8.25H5.5C5.09 8.25 4.75 7.91 4.75 7.5C4.75 7.09 5.09 6.75 5.5 6.75H10.5C10.91 6.75 11.25 7.09 11.25 7.5C11.25 7.91 10.91 8.25 10.5 8.25Z" />
</svg>

<?xml version="1.0" encoding="UTF-8"?>
<svg width="24" height="24" viewBox="0 0 24 24" xmlns="http://www.w3.org/2000/svg">
 <path d="M22 7.81V16.19C22 19.83 19.83 22 16.19 22H7.81C6.32 22 5.08 21.64 4.13 20.95C3.71 20.66 3.34 20.29 3.05 19.87C2.36 18.92 2 17.68 2 16.19V7.81C2 4.17 4.17 2 7.81 2H16.19C17.68 2 18.92 2.36 19.87 3.05C20.29 3.34 20.66 3.71 20.95 4.13C21.64 5.08 22 6.32 22 7.81Z" opacity=".4"/>
 <path d="m20.95 4.1298-16.82 16.82c-0.42-0.29-0.79-0.66-1.08-1.08l16.82-16.82c0.42 0.29 0.79 0.66 1.08 1.08z"/>
 <path d="m18.5 14.75h-1.69v-1.75c0-0.41-0.34-0.75-0.75-0.75s-0.75 0.34-0.75 0.75v1.75h-1.81c-0.41 0-0.75 0.34-0.75 0.75s0.34 0.75 0.75 0.75h1.81v1.75c0 0.41 0.34 0.75 0.75 0.75s0.75-0.34 0.75-0.75v-1.75h1.69c0.41 0 0.75-0.34 0.75-0.75s-0.34-0.75-0.75-0.75z"/>
 <path d="m10.5 8.25h-5c-0.41 0-0.75-0.34-0.75-0.75s0.34-0.75 0.75-0.75h5c0.41 0 0.75 0.34 0.75 0.75s-0.34 0.75-0.75 0.75z"/>
</svg>
